client/public/img/game/shared/weapons/g17_scoped_world.svg

<?xml version="1.0" encoding="UTF-8" standalone="no"?>
<svg
   width="109"
   height="21"
   viewBox="0 0 109 21"
   fill="none"
   version="1.1"
   id="svg23"
   xmlns="http://www.w3.org/2000/svg"
   xmlns:svg="http://www.w3.org/2000/svg">
  <defs
     id="defs23" />
  <path
     d="M74.5215 6.55469H74.6615C74.8272 6.55469 74.9615 6.689 74.9615 6.85469V11.785C74.9615 11.9506 74.8272 12.085 74.6615 12.085H74.5215V6.55469Z"
     fill="#4D4033"
     stroke="#1C1712"
     stroke-width="1.5"
     id="path1" />
  <path
     d="M74.9614 5.75156C74.9614 5.25451 75.3644 4.85156 75.8614 4.85156H98.3414V13.7803H75.8614C75.3644 13.7803 74.9614 13.3773 74.9614 12.8803V5.75156Z"
     fill="#AA5E13"
     id="path2" />
  <path
     d="M98.3413 4.85156H105.631C106.128 4.85156 106.531 5.25451 106.531 5.75156V12.8803C106.531 13.3773 106.128 13.7803 105.631 13.7803H98.3413V4.85156Z"
     fill="#A55C12"
     id="path3" />
  <rect
     x="74.9614"
     y="4.85156"
     width="31.5698"
     height="8.92871"
     rx="0.9"
     stroke="#291705"
     stroke-width="3"
     id="rect3" />
  <rect
     x="17.0049"
     y="3.61133"
     width="57.5166"
     height="11.4199"
     rx="2.25"
     fill="#CC6600"
     id="rect4" />
  <path
     d="M50.7784 4.56641H40.1583V7.51161H39.2314V11.1152H40.1583V14.0604H50.7784V4.56641Z"
     fill="#534537"
     stroke="#1C1712"
     stroke-width="1.5"
     id="path4" />
  <path
     d="M28.6147 8.20117H24.061V10.4302H28.6147V8.20117Z"
     fill="#A35200"
     id="path5" />
  <path
     d="M28.1147 5.97266H24.561C24.2849 5.97266 24.061 6.19651 24.061 6.47266V8.20164H28.6147V6.47266C28.6147 6.19651 28.3909 5.97266 28.1147 5.97266Z"
     fill="#AD5700"
     id="path6" />
  <path
     d="M28.6147 10.4297H24.061V12.1587C24.061 12.4348 24.2849 12.6587 24.561 12.6587H28.1147C28.3909 12.6587 28.6147 12.4348 28.6147 12.1587V10.4297Z"
     fill="#AD5700"
     id="path7" />
  <path
     d="M28.6145 12.1582C28.6145 12.4344 28.3906 12.6582 28.1145 12.6582H24.561C24.2849 12.6582 24.061 12.4344 24.061 12.1582V6.47266C24.061 6.19651 24.2849 5.97266 24.561 5.97266H28.1145C28.3906 5.97266 28.6145 6.19651 28.6145 6.47266V12.1582Z"
     stroke="#2E1700"
     stroke-width="1.5"
     id="path8" />
  <rect
     x="65.2227"
     y="7.5"
     width="5.75879"
     height="3.62964"
     rx="0.5"
     fill="#AD5700"
     stroke="#2E1700"
     stroke-width="1.5"
     id="rect8" />
  <rect
     x="17.0049"
     y="3.61133"
     width="57.5166"
     height="11.4199"
     rx="2.25"
     stroke="#2E1700"
     stroke-width="3"
     id="rect9" />
  <path
     d="M2.47813 16.327C1.98813 16.327 1.57812 15.927 1.57812 15.427V3.27695C1.57812 2.78695 1.97813 2.37695 2.47813 2.37695H5.02812V16.327H2.47813Z"
     fill="#854A0F"
     id="path9" />
  <path
     d="M24.308 3.17773H22.978V15.5277H24.308V3.17773Z"
     fill="#A05912"
     id="path10" />
  <path
     d="M25.9179 4.31836H24.2979V14.3984H25.9179V4.31836Z"
     fill="#81470E"
     id="path11" />
  <path
     d="M88.208 16.5277C88.698 16.5277 89.108 16.1277 89.108 15.6277V3.07773C89.108 2.58773 88.708 2.17773 88.208 2.17773H78.478L66.358 4.15773H25.918V14.5477H66.348L78.468 16.5277H88.208Z"
     fill="#8B4D0F"
     id="path12" />
  <path
     d="M15.1783 2.37695H5.02832V16.327H15.1783L22.9683 15.107V3.59695L15.1783 2.37695Z"
     fill="#8E4F10"
     id="path13" />
  <path
     d="M85.4381 2.17773H83.8481V16.5277H85.4381V2.17773Z"
     fill="#CCAA00"
     id="path14" />
  <path
     d="M50.9879 15.6378H40.5279L39.6279 14.7778V3.74781C44.4279 3.17781 47.1079 3.17781 51.8879 3.74781V14.7778L50.9879 15.6378Z"
     fill="#9D5711"
     id="path15" />
  <path
     d="M50.7783 15.6387H40.7383V17.3687H50.7783V15.6387Z"
     fill="#A65C12"
     id="path16" />
  <path
     d="M50.9779 17.3672H40.5479V18.0872H50.9779V17.3672Z"
     fill="#A95E13"
     id="path17" />
  <path
     d="M48.9982 19.1779H42.5182L40.9082 18.0879H50.5982L48.9982 19.1779Z"
     fill="#B26314"
     id="path18" />
  <path
     d="M45.7583 14.1787C48.5308 14.1787 50.7783 11.9311 50.7783 9.15867C50.7783 6.3862 48.5308 4.13867 45.7583 4.13867C42.9858 4.13867 40.7383 6.3862 40.7383 9.15867C40.7383 11.9311 42.9858 14.1787 45.7583 14.1787Z"
     fill="#A95E13"
     id="path19" />
  <path
     d="M45.7582 12.2771C47.4813 12.2771 48.8782 10.8802 48.8782 9.15711C48.8782 7.43398 47.4813 6.03711 45.7582 6.03711C44.0351 6.03711 42.6382 7.43398 42.6382 9.15711C42.6382 10.8802 44.0351 12.2771 45.7582 12.2771Z"
     fill="#B26314"
     id="path20" />
  <path
     d="M40.9181 18.0877L42.5281 19.1777H49.0081L50.6181 18.0877H50.9881V17.3677H50.7881V15.6377H51.0081L51.9081 14.7777V14.5577H66.3681L78.4881 16.5377H88.2181C88.7081 16.5377 89.1181 16.1377 89.1181 15.6377V3.07773C89.1181 2.58773 88.7181 2.17773 88.2181 2.17773H78.4881L66.3681 4.15773H51.9081V3.74773C47.1281 3.17773 44.4481 3.17773 39.6481 3.74773V4.15773H25.9381L22.9881 3.59773L15.9481 2.49773C15.4381 2.41773 14.9281 2.37773 14.4181 2.37773H2.47813C1.98813 2.37773 1.57812 2.77773 1.57812 3.27773V15.4277C1.57812 15.9177 1.97813 16.3277 2.47813 16.3277H14.5081C14.9581 16.3277 15.3981 16.2977 15.8481 16.2277L22.9781 15.1077L25.9281 14.5477H39.6381V14.7677L40.5381 15.6277H40.7581V17.3577H40.5581V18.0877H40.9181Z"
     stroke="#291704"
     stroke-width="3"
     id="path21" />
  <path
     d="M37.8482 3.17773H32.4782C32.0282 3.17773 31.6582 3.54773 31.6582 3.99773V15.1077C31.6582 15.5577 32.0282 15.9277 32.4782 15.9277H37.8482C38.2982 15.9277 38.6682 15.5577 38.6682 15.1077V3.99773C38.6682 3.54773 38.2982 3.17773 37.8482 3.17773Z"
     fill="#634221"
     stroke="#22170B"
     stroke-width="3"
     id="path22" />
  <path
     d="M58.1978 3.17773H52.8278C52.3778 3.17773 52.0078 3.54773 52.0078 3.99773V15.1077C52.0078 15.5577 52.3778 15.9277 52.8278 15.9277H58.1978C58.6478 15.9277 59.0178 15.5577 59.0178 15.1077V3.99773C59.0178 3.54773 58.6478 3.17773 58.1978 3.17773Z"
     fill="#634221"
     stroke="#22170B"
     stroke-width="3"
     id="path23" />
</svg>

<svg xmlns="http://www.w3.org/2000/svg" width="109" height="21" fill="none"><path fill="#4D4033" stroke="#1C1712" stroke-width="1.5" d="M74.522 6.555h.14a.3.3 0 0 1 .3.3v4.93a.3.3 0 0 1-.3.3h-.14z"/><path fill="#AA5E13" d="M74.961 5.752a.9.9 0 0 1 .9-.9h22.48v8.928h-22.48a.9.9 0 0 1-.9-.9z"/><path fill="#A55C12" d="M98.341 4.852h7.29a.9.9 0 0 1 .9.9v7.128a.9.9 0 0 1-.9.9h-7.29z"/><rect width="31.57" height="8.929" x="74.961" y="4.852" stroke="#291705" stroke-width="3" rx=".9"/><rect width="57.517" height="11.42" x="17.005" y="3.611" fill="#C60" rx="2.25"/><path fill="#534537" stroke="#1C1712" stroke-width="1.5" d="M50.778 4.566h-10.62v2.946h-.927v3.603h.927v2.945h10.62z"/><path fill="#A35200" d="M28.615 8.201H24.06v2.23h4.554z"/><path fill="#AD5700" d="M28.115 5.973H24.56a.5.5 0 0 0-.5.5v1.729h4.554v-1.73a.5.5 0 0 0-.5-.5M28.615 10.43H24.06v1.729a.5.5 0 0 0 .5.5h3.554a.5.5 0 0 0 .5-.5z"/><path stroke="#2E1700" stroke-width="1.5" d="M28.615 12.158a.5.5 0 0 1-.5.5H24.56a.5.5 0 0 1-.5-.5V6.473a.5.5 0 0 1 .5-.5h3.553a.5.5 0 0 1 .5.5z"/><rect width="5.759" height="3.63" x="65.223" y="7.5" fill="#AD5700" stroke="#2E1700" stroke-width="1.5" rx=".5"/><rect width="57.517" height="11.42" x="17.005" y="3.611" stroke="#2E1700" stroke-width="3" rx="2.25"/><path fill="#854A0F" d="M2.478 16.327c-.49 0-.9-.4-.9-.9V3.277c0-.49.4-.9.9-.9h2.55v13.95z"/><path fill="#A05912" d="M24.308 3.178h-1.33v12.35h1.33z"/><path fill="#81470E" d="M25.918 4.318h-1.62v10.08h1.62z"/><path fill="#8B4D0F" d="M88.208 16.528c.49 0 .9-.4.9-.9V3.078c0-.49-.4-.9-.9-.9h-9.73l-12.12 1.98h-40.44v10.39h40.43l12.12 1.98z"/><path fill="#8E4F10" d="M15.178 2.377H5.028v13.95h10.15l7.79-1.22V3.597z"/><path fill="#CA0" d="M85.438 2.178h-1.59v14.35h1.59z"/><path fill="#9D5711" d="M50.988 15.638h-10.46l-.9-.86V3.748c4.8-.57 7.48-.57 12.26 0v11.03z"/><path fill="#A65C12" d="M50.778 15.639h-10.04v1.73h10.04z"/><path fill="#A95E13" d="M50.978 17.367h-10.43v.72h10.43z"/><path fill="#B26314" d="M48.998 19.178h-6.48l-1.61-1.09h9.69z"/><path fill="#A95E13" d="M45.758 14.179a5.02 5.02 0 1 0 0-10.04 5.02 5.02 0 0 0 0 10.04"/><path fill="#B26314" d="M45.758 12.277a3.12 3.12 0 1 0 0-6.24 3.12 3.12 0 0 0 0 6.24"/><path stroke="#291704" stroke-width="3" d="m40.918 18.088 1.61 1.09h6.48l1.61-1.09h.37v-.72h-.2v-1.73h.22l.9-.86v-.22h14.46l12.12 1.98h9.73c.49 0 .9-.4.9-.9V3.078c0-.49-.4-.9-.9-.9h-9.73l-12.12 1.98h-14.46v-.41c-4.78-.57-7.46-.57-12.26 0v.41h-13.71l-2.95-.56-7.04-1.1q-.765-.12-1.53-.12H2.478c-.49 0-.9.4-.9.9v12.15c0 .49.4.9.9.9h12.03c.45 0 .89-.03 1.34-.1l7.13-1.12 2.95-.56h13.71v.22l.9.86h.22v1.73h-.2v.73z"/><path fill="#634221" stroke="#22170B" stroke-width="3" d="M37.848 3.178h-5.37c-.45 0-.82.37-.82.82v11.11c0 .45.37.82.82.82h5.37c.45 0 .82-.37.82-.82V3.998c0-.45-.37-.82-.82-.82ZM58.198 3.178h-5.37c-.45 0-.82.37-.82.82v11.11c0 .45.37.82.82.82h5.37c.45 0 .82-.37.82-.82V3.998c0-.45-.37-.82-.82-.82Z"/></svg>
